X:70
T: Larry Redican's Slip Jig
S: Jimmy Keane
Z: B. Black
R: slip jig
M: 9/8
L: 1/8
K: G
GFG Bdd cee|GFG BdB cAF|GFG DGG DGF|EDE AGF G3 :|
AGE EDB, DEG|dBA GBd e2 g|dBA BAG EDB,|\
DB,A, A,B,D E3 :|
